markets/GALA.svg

<svg width="42" height="43" viewBox="0 0 42 43" fill="none" xmlns="http://www.w3.org/2000/svg">
<g clip-path="url(#clip0_9309_2872)">
<path d="M21.021 1.19019C9.39116 1.19019 0.209961 10.6192 0.209961 21.9592C0.209961 33.4672 9.51296 42.7702 20.979 42.7702C32.6088 42.7702 41.79 33.3412 41.79 21.9592C41.79 10.3714 32.361 1.19019 21.021 1.19019ZM20.202 38.4232L6.09836 29.8972V13.8742L8.36636 15.2266V28.6288L18.1104 34.6012V23.3872L14.8638 21.5182V18.952L20.202 22.0222V38.4232ZM21 20.9134C16.3254 18.2128 11.676 15.508 7.01396 12.8074C11.7138 10.1866 16.2036 7.70019 20.958 5.30619C25.011 7.17099 28.7406 9.42639 32.6466 11.56C33.4446 11.98 34.2132 12.3874 34.9986 12.7906L32.7432 14.1388L30.4206 12.8536L21.0546 7.79259L11.5962 12.8746L21.0546 18.28L21.756 17.86L22.4868 17.4694L24.0954 16.5496L26.4642 17.7508L25.4394 18.3472L21.7056 20.5102L21 20.9134ZM21.8652 38.6542V35.9494C25.6494 33.4756 29.6478 31.1782 33.5916 28.696V17.8852C30.3366 19.939 26.9556 21.5728 23.8644 23.6392V27.2848L21.8652 28.2718V22.0348L35.9016 13.9414V29.9644C31.5504 33.0052 25.9602 35.2858 21.8652 38.6542Z" fill="#268AEF"/>
</g>
<defs>
<clipPath id="clip0_9309_2872">
<rect width="42" height="42" fill="white" transform="translate(0 0.980194)"/>
</clipPath>
</defs>
</svg>

<svg width="42" height="43" fill="none" viewBox="0 0 42 43" xmlns="http://www.w3.org/2000/svg">
  <g clip-path="url(#a)">
    <path fill="#268AEF" d="M21.021 1.19C9.391 1.19.21 10.62.21 21.96c0 11.507 9.303 20.81 20.769 20.81 11.63 0 20.811-9.429 20.811-20.81 0-11.589-9.429-20.77-20.769-20.77m-.819 37.233L6.098 29.897V13.874l2.268 1.353v13.402L18.11 34.6V23.387l-3.246-1.869v-2.566l5.338 3.07zM21 20.913c-4.675-2.7-9.324-5.405-13.986-8.106 4.7-2.62 9.19-5.107 13.944-7.5 4.053 1.864 7.783 4.12 11.689 6.253.798.42 1.566.827 2.352 1.23l-2.256 1.349-2.322-1.285-9.366-5.061-9.459 5.082 9.459 5.405.701-.42.73-.39 1.61-.92 2.368 1.2-1.025.597-3.733 2.163zm.865 17.741V35.95c3.784-2.473 7.783-4.77 11.727-7.253v-10.81c-3.255 2.053-6.636 3.687-9.728 5.753v3.646l-1.999.987v-6.237l14.037-8.094v16.023c-4.352 3.041-9.942 5.322-14.037 8.69"/>
  </g>
  <defs>
    <clipPath id="a">
      <path fill="#fff" d="M0 .98h42v42H0z"/>
    </clipPath>
  </defs>
</svg>
